X:0876
T:Wally Wally.
M:3/4
L:1/8
Q:1/4=72
I: :: ||
Z:Jack Campin * www.campin.me.uk * 2009
K:D
D|F>G     A2 d2|  (e/f/g/f/)   {f}e3   E|F>G   A2 d2|{f}ed/c/   {c}d3
D|F>G     A2 d2|  (e/f/)(g/f/) {f}e3   E|F>G   A2 d2|{f}ed/c/   {c}d3||
=c|B>A {G}F3  d|{B}AG/F/          E2 E=c|Bd    A2 f2|  (a/f/e/f/)  d3
=c|B>A    F3  d|  (B/A/G/F/)      E3  =c|Bd {B}A2 FD|  (E/D/E/F/)  D3|]
<end>
<start>
